X:177
T: ZWEI LIEBTEN SICH AUS REINEM SINN
N: E0093F
O: Europa, Mitteleuropa, Deutschland, Kreis Wetzlar; Dillkreis
R: erzaehlendes Volks - Lied, Sage, Liebe, Leid, Tod
M: 3/4
L: 1/16
K: G
D2G2A2 | B6B2A2G2 | d6
D2D2F2 | A4e4d2c2 | B4z2
d2d2d2 | c3BA2d2d2d2 | B3AG2
B2B2B2 | A4e4d2c2 | B4z2

@@@ Tune index: 3827
